img/vector/icons-apple-purple.svg

<svg width="26" height="30" viewBox="0 0 26 30" fill="none" xmlns="http://www.w3.org/2000/svg">
<path d="M18.0292 4.7455C18.9788 3.63884 19.6376 2.11953 19.6376 0.600222C19.6376 0.393896 19.6182 0.168812 19.5795 0C18.0486 0.0562708 16.1883 0.994117 15.0838 2.26959C14.2118 3.22619 13.3979 4.7455 13.3979 6.28357C13.3979 6.50866 13.4366 6.7525 13.456 6.82752C13.5529 6.84628 13.7079 6.86504 13.863 6.86504C15.2582 6.86504 17.0022 5.9647 18.0292 4.7455ZM19.1144 7.1839C16.789 7.1839 14.9094 8.55316 13.7079 8.55316C12.429 8.55316 10.7237 7.25893 8.70842 7.25893C4.89095 7.25893 0.995972 10.3351 0.995972 16.0934C0.995972 19.7135 2.44932 23.5024 4.21272 25.9596C5.74358 28.0416 7.08066 29.7297 8.97971 29.7297C10.8788 29.7297 11.7314 28.5105 14.0955 28.5105C16.479 28.5105 17.0216 29.6922 19.1144 29.6922C21.2072 29.6922 22.5831 27.854 23.8814 26.0346C25.3541 23.9526 25.9742 21.9269 25.9936 21.8143C25.8773 21.7768 21.8855 20.22 21.8855 15.7933C21.8855 11.9857 25.0247 10.2788 25.1991 10.1475C23.145 7.25893 19.9864 7.1839 19.1144 7.1839Z" fill="#A658DB"/>
</svg>

<svg width="26" height="30" fill="none" xmlns="http://www.w3.org/2000/svg"><path d="M18.03 4.745C18.978 3.64 19.637 2.12 19.637.6c0-.206-.02-.431-.059-.6-1.53.056-3.39.994-4.495 2.27-.872.956-1.686 2.475-1.686 4.014 0 .225.039.469.058.544.097.018.252.037.407.037 1.395 0 3.14-.9 4.166-2.12Zm1.084 2.439c-2.325 0-4.205 1.37-5.406 1.37-1.279 0-2.984-1.295-5-1.295-3.817 0-7.712 3.076-7.712 8.834 0 3.62 1.453 7.41 3.217 9.867 1.53 2.082 2.868 3.77 4.767 3.77 1.899 0 2.751-1.22 5.115-1.22 2.384 0 2.927 1.182 5.02 1.182 2.092 0 3.468-1.838 4.766-3.657 1.473-2.082 2.093-4.108 2.113-4.22-.117-.038-4.108-1.595-4.108-6.022 0-3.807 3.139-5.514 3.313-5.645-2.054-2.89-5.213-2.964-6.085-2.964Z" fill="#A658DB"/></svg>
